X:1167
T:50 års skänklåt till Nola
C:Roland Winge
R:Skänklåt
Z:Gustaf Landahl, 2009-02-09
O:Knutby, Uppland
S:Hemulernas Frivilliga gatuorkester
M:4/4
L:1/8
K:D
ag|:f2a2c2a2|d3cB2dc|B2def2a2|abagf2ag|
f2a2c2a2|d3cB2dc|B2dcB2A2|1 B4B2ag:|2 B4B2A2|
|:G2BGB2d2|cBcde2g2|fagf eaec|dfdcB2A2|G2BGB2d2|
cBcde2g2|fagf eagf|1eABcd2A2:|2eABcd2ag|f2a2c2a2|d6|]

(:musicend:)

(:music:)
